X: 15597
T: Gneevgullia
R: reel
M: 4/4
K: Eminor
~E3F G2EF|GBAG GAdF|~E3 F GABc|dBAF BAFA:|
~e3d (3Bcd ef|geaf gfed|~e3d (3Bcd eg|fedf e3 d|
~e3d (3Bcd ef|geaf gfea|~g3e ~f2fe|~d3B BAFA|
|:GBdg egdB|A~D3 ~F3D|B~E3 ~G3B|dBA=c BAFA:|

